X:1445
T:Miss Spence's Reel
S:Can't remember
O:Shetland
Z:Nigel Gatherer <gatherer@argonet.co.uk>
M:4/4
L:1/8
K:D
A|d2 AG F2 DF|E2 C>E c3 A|B2 AG F2 [A,2D2]|d d2 c d3 :|
e|fafd fafd|egec egec|fafd fafd|egec d3:|
